src/assets/icons/edit.svg

<svg fill="none" viewBox="0 0 24 24"><path stroke="currentColor" stroke-linecap="round" stroke-linejoin="round" stroke-width="1.5" d="m15.161 8.237-7.71 7.709-.701 2.804 2.804-.701 7.709-7.71m-2.102-2.102 1.051-1.052a1.49 1.49 0 0 1 2.103 0 1.5 1.5 0 0 1 .435 1.052 1.49 1.49 0 0 1-.435 1.051l-1.052 1.051m-2.102-2.102 2.102 2.102"/></svg>

<svg width="24" height="24" viewBox="0 0 24 24" fill="none" xmlns="http://www.w3.org/2000/svg">
<path d="M15.161 8.237L7.451 15.946L6.75 18.75L9.554 18.049L17.263 10.339M15.161 8.237L16.212 7.185C16.491 6.907 16.869 6.75 17.263 6.75C17.459 6.75 17.652 6.788 17.832 6.863C18.013 6.938 18.177 7.047 18.315 7.185C18.453 7.324 18.562 7.487 18.637 7.668C18.712 7.848 18.75 8.042 18.75 8.237C18.75 8.432 18.712 8.625 18.637 8.806C18.562 8.986 18.453 9.15 18.315 9.288L17.263 10.339M15.161 8.237L17.263 10.339" stroke="#314158" stroke-width="1.5" stroke-linecap="round" stroke-linejoin="round"/>
</svg>
